X: 17774
T: Honeycomb Rock, The
R: hornpipe
M: 4/4
K: Gmajor
|:ge|dBcA BAGB|dBcA B z ge|dBcA BAGB|AGFA G z:|
|:ef|g2 fg afdf|g2fg a z ga|b2 ag .f2 .d2|edef g z:|

